app/dist/common/images/american-west-metals-limited.svg

<svg height="18" viewBox="0 0 18 18" width="18" xmlns="http://www.w3.org/2000/svg"><path d="m0 0h18v18h-18z" fill="#f0f3fa"/><path d="m7 4h1.23l2.77 5h-1.23zm2.5 1h1.28l2.22 4h-1.28z" fill="#13406a"/><path d="m8.64 10h6.36l-.67 1h-6.33zm-.97 2h5.33l-.7 1h-5.3z" fill="#0093ac"/><path d="m6.97 5.38-3.97 7.62h1.27l3.27-6.4zm.98 2.08-3 5.54h1.25l2.31-4.33-.56-1.2z" fill="#7099a9"/></svg>

<!-- by TradingView --><svg width="18" height="18" viewBox="0 0 18 18" xmlns="http://www.w3.org/2000/svg"><path fill="#F0F3FA" d="M0 0h18v18H0z"/><path d="M7 4h1.23L11 9H9.77L7 4ZM9.5 5h1.28L13 9h-1.28L9.5 5Z" fill="#13406A"/><path d="M8.64 10H15l-.67 1H8l.64-1ZM7.67 12H13l-.7 1H7l.67-1Z" fill="#0093AC"/><path d="M6.97 5.38 3 13h1.27l3.27-6.4-.57-1.22ZM7.95 7.46l-3 5.54H6.2l2.31-4.33-.56-1.2Z" fill="#7099A9"/></svg>
